X:36
T:White Joak,The. WCl.36
M:6/8
L:1/8
Q:3/8=80
S:William Clarke MS,Lincoln,1770.
R:.Joak
O:Lincoln
A:England
Z:vmp.Barry Callaghan
K:D
d|d2d fed|cdB AFA|B2B Bcd|A2F DEF|!
G2G BAG|FGE D2D|G2″cr”G BAG|FGE D2:|!
|:A|A2A A2A|def e2A|A2A A2A|def edc|!
B2d A2d|G2d F2A|B2B Bcd|A2F DEF|!
FGE D2D|G2G BAG|FGE D3:|

